images/menu-social-link.svg

<svg width="24" height="24" viewBox="0 0 24 24" fill="none" xmlns="http://www.w3.org/2000/svg">
<g id="Frame">
<path id="Vector" d="M21 1.5H2.99531C2.17031 1.5 1.5 2.17969 1.5 3.01406V20.9859C1.5 21.8203 2.17031 22.5 2.99531 22.5H21C21.825 22.5 22.5 21.8203 22.5 20.9859V3.01406C22.5 2.17969 21.825 1.5 21 1.5ZM7.84687 19.5H4.73438V9.47812H7.85156V19.5H7.84687ZM6.29062 8.10938C5.29219 8.10938 4.48594 7.29844 4.48594 6.30469C4.48594 5.31094 5.29219 4.5 6.29062 4.5C7.28437 4.5 8.09531 5.31094 8.09531 6.30469C8.09531 7.30312 7.28906 8.10938 6.29062 8.10938ZM19.5141 19.5H16.4016V14.625C16.4016 13.4625 16.3781 11.9672 14.7844 11.9672C13.1625 11.9672 12.9141 13.2328 12.9141 14.5406V19.5H9.80156V9.47812H12.7875V10.8469H12.8297C13.2469 10.0594 14.2641 9.22969 15.7781 9.22969C18.9281 9.22969 19.5141 11.3062 19.5141 14.0062V19.5Z" fill="url(#paint0_linear_814_2088)"/>
</g>
<defs>
<linearGradient id="paint0_linear_814_2088" x1="1.5" y1="1.5" x2="26.8221" y2="12.8972" gradientUnits="userSpaceOnUse">
<stop stop-color="#A088FB"/>
<stop offset="1" stop-color="#B8A6FB"/>
</linearGradient>
</defs>
</svg>

<svg width="24" height="24" fill="none" xmlns="http://www.w3.org/2000/svg"><path d="M21 1.5H2.995C2.17 1.5 1.5 2.18 1.5 3.014v17.972c0 .834.67 1.514 1.495 1.514H21c.825 0 1.5-.68 1.5-1.514V3.014A1.51 1.51 0 0 0 21 1.5Zm-13.153 18H4.734V9.478h3.118V19.5h-.005ZM6.29 8.11a1.805 1.805 0 0 1 0-3.61c.993 0 1.804.81 1.804 1.805 0 .998-.806 1.804-1.804 1.804ZM19.514 19.5h-3.112v-4.875c0-1.162-.024-2.658-1.618-2.658-1.622 0-1.87 1.266-1.87 2.574V19.5H9.802V9.478h2.986v1.369h.042c.417-.788 1.434-1.617 2.948-1.617 3.15 0 3.736 2.076 3.736 4.776V19.5Z" fill="url(#a)"/><defs><linearGradient id="a" x1="1.5" y1="1.5" x2="26.822" y2="12.897" gradientUnits="userSpaceOnUse"><stop stop-color="#A088FB"/><stop offset="1" stop-color="#B8A6FB"/></linearGradient></defs></svg>
